outputs/icons/communication/block_sharp.svg

<svg xmlns="http://www.w3.org/2000/svg" width="1200" height="1200" fill="none"><g clip-path="url(#a)"><path fill="#000" d="M600 100c275 0 500 225 500 500s-225 500-500 500-500-225-500-500 225-500 500-500m400 500c0-220-180-400-400-400-90 0-175 30-245 85l560 560c55-70 85-155 85-245m-400 400c90 0 175-30 245-85L285 355c-55 70-85 155-85 245 0 220 180 400 400 400"/></g><defs><clipPath id="a"><path fill="#fff" d="M0 0h1200v1200H0z"/></clipPath></defs></svg>

<svg width="1200" height="1200" viewBox="0 0 1200 1200" fill="none" xmlns="http://www.w3.org/2000/svg"><g clip-path="url(#clip0_133_21)"><path d="M600 100C875 100 1100 325 1100 600C1100 875 875 1100 600 1100C325 1100 100 875 100 600C100 325 325 100 600 100ZM1000 600C1000 380 820 200 600 200C510 200 425 230 355 285L915 845C970 775 1000 690 1000 600ZM600 1000C690 1000 775 970 845 915L285 355C230 425 200 510 200 600C200 820 380 1000 600 1000Z" fill="black"/></g><defs><clipPath id="clip0_133_21"><path width="24" fill="white" d="M0 0H1200V1200H0V0z"/></clipPath></defs></svg>
